X:194
T:Sonata Op.5 No.7 - Sarabanda
C:Corelli, A.
M:3/4
L:1/8
Q:1/4=50
K:D
|:A2|d4 cd|e2 dc B2|A4 Bc|d4 A2|
F4 GA|B2 AG F2|G2 AB cd|d4:|

